!!!!SEGMENT:Kanashikimonogatari.krn
!!!OTL: 悲しき物語
!!!OPR:Eiga Banso Kyokusyu,jidai-geki,kouhen
!!!YOY:1928
!!!ONB:Higeki
**kern	**dynam
*clefG2	*
*k[]	*
*C:	*
*M4/4	*
*met(c)	*
!LO:TX:a:B:t=Andante	!
4g	.
=1!|:	=1!|:
(2ee	.
4dd	.
4cc)	.
=2	=2
(2ee	.
4dd	.
4a)	.
=3	=3
(2ff	.
4ee	.
4dd)	.
=4	=4
(2aa	.
2gg)	.
=5	=5
(2gg	.
4ff	.
4ee)	.
=6	=6
(4dd	.
4aa	.
4bb	.
4aa)	.
=7	=7
(4gg	.
4ee	.
4ee	.
4dd)	.
=8	=8
(2dd	<
2dd#X)	[[
=9	=9
(2ee	p
4dd	.
4cc)	.
=10	=10
(2ee	.
4dd	.
4a)	.
=11	=11
(2ff	.
4ee	.
4dd)	.
=12	=12
(2aa	.
2gg)	.
=13	=13
(2gg	.
4aa	.
4gg)	.
=14	=14
(4gg	.
4ff	.
4ee	.
4dd)	.
=15	=15
(4cc	.
4ee)	.
4.ee	.
8dd	.
=16	=16
(8ccL	.
8g	.
8e	.
8gJ)	.
(8eL	.
8g	.
8b	.
8aJ)	.
=17	=17
(8gL	.
8f#X	.
8g	.
8g#XJ)	.
(8aL	.
8b	.
8ee	.
8ddJ)	.
=18	=18
(8ccL	.
8ee	.
8gg	.
8eeJ)	.
(8ccL	.
8ee	.
8bb	.
8aaJ)	.
=19	=19
(8ggL	.
8ff#X	.
8gg	.
8gg#XJ)	.
(8aL 8aa	.
8b 8bb	.
8ee 8eee	.
8ddJ) 8ddd	.
=20	=20
2.cc 2.ccc	.
4g	.
=21	=21
2.cc 2.ccc	.
4r	.
==	==
*-	*-
!!!ENC: Yukiko Yoden
!!!END: 2023/06/11
